images/envato-market-logo.svg

<svg width="1894" height="257" viewBox="0 0 1894 257" fill="none" xmlns="http://www.w3.org/2000/svg">
<path d="M293.781 50.8298C332.151 50.8298 369.651 73.4498 369.651 123.84C369.651 127.84 369.431 134.04 368.991 138.4C368.891 139.4 368.041 140.16 367.031 140.16H259.411C262.561 158.2 275.161 169.94 294.911 169.94C308.011 169.94 316.371 162.7 320.921 154.04C321.491 152.95 322.731 152.38 323.931 152.64L364.171 161.41C365.401 161.68 366.051 163 365.551 164.15C356.141 185.46 334.741 206.58 294.631 206.58C241.951 206.58 213.891 172.22 213.891 128.7C213.891 85.1798 243.091 50.8198 293.771 50.8198L293.781 50.8298ZM324.701 112.68C322.701 95.4998 311.241 86.3398 294.641 86.3398C272.881 86.3398 263.721 97.5098 260.281 112.68H324.701Z" fill="#191919"/>
<path d="M383.4 200.04V57.3898C383.4 56.2998 384.28 55.4198 385.37 55.4198H427.24C428.33 55.4198 429.21 56.2998 429.21 57.3898V74.3199C439.23 58.5699 454.12 50.8398 473.3 50.8398C501.36 50.8398 525.41 70.0198 525.41 112.97V200.04C525.41 201.13 524.53 202.01 523.44 202.01H481.57C480.48 202.01 479.6 201.13 479.6 200.04V119.55C479.6 100.37 469.58 89.7699 454.98 89.7699C439.23 89.7699 429.21 100.08 429.21 123.56V200.04C429.21 201.13 428.33 202.01 427.24 202.01H385.37C384.28 202.01 383.4 201.13 383.4 200.04Z" fill="#191919"/>
<path d="M528.22 55.4098H572.63C573.5 55.4098 574.26 55.9798 574.52 56.8098L607.88 167.36L641.24 56.8098C641.49 55.9798 642.26 55.4098 643.13 55.4098H687.54C688.9 55.4098 689.86 56.7598 689.39 58.0498L638.31 200.18C637.92 201.27 636.88 202.01 635.71 202.01H580.04C578.88 202.01 577.84 201.28 577.44 200.18L526.36 58.0498C525.9 56.7698 526.85 55.4098 528.21 55.4098H528.22Z" fill="#191919"/>
<path d="M786.541 200.04V177.67C779.381 192.56 763.351 206.59 738.441 206.59C709.521 206.59 688.051 188.27 688.051 162.5C688.051 135.3 706.091 114.97 745.601 114.97H768.511C781.111 114.97 784.541 105.81 783.401 99.7999C781.681 89.4899 772.521 84.0499 759.641 84.0499C743.371 84.0499 733.521 93.0399 732.281 105.42C732.171 106.55 731.131 107.36 730.011 107.17L691.171 100.7C690.091 100.52 689.351 99.4898 689.551 98.4198C695.881 64.6298 727.921 50.8398 760.801 50.8398C793.681 50.8398 830.091 58.8598 830.091 119.56V200.05C830.091 201.14 829.211 202.02 828.121 202.02H788.541C787.451 202.02 786.571 201.14 786.571 200.05L786.541 200.04ZM751.901 173.38C770.221 173.38 782.821 159.64 784.251 142.46H756.481C739.591 142.46 733.571 149.33 733.861 158.78C734.151 168.8 742.161 173.38 751.901 173.38Z" fill="#191919"/>
<path d="M836.94 90.0898V57.3798C836.94 56.2898 837.82 55.4098 838.91 55.4098H855.26C862.85 55.4098 869 49.2598 869 41.6698V16.1498C869 15.0598 869.88 14.1798 870.97 14.1798H908.26C909.35 14.1798 910.23 15.0598 910.23 16.1498V55.4098H940.331C941.421 55.4098 942.3 56.2898 942.3 57.3798V90.0898C942.3 91.1798 941.421 92.0598 940.331 92.0598H910.23V145.03C910.23 162.29 924.9 169.32 940.22 163.88C941.24 163.52 942.3 164.29 942.3 165.36V199.87C942.3 201.14 941.441 202.26 940.211 202.55C936.251 203.49 930.76 204.3 924.27 204.3C888.77 204.3 864.43 192.27 864.43 140.74V92.0698H838.91C837.82 92.0698 836.94 91.1898 836.94 90.0998V90.0898Z" fill="#191919"/>
<path d="M1109.52 128.71C1109.52 171.66 1079.17 206.59 1029.35 206.59C979.531 206.59 949.181 171.66 949.181 128.71C949.181 85.7598 979.531 50.8298 1029.35 50.8298C1079.17 50.8298 1109.52 85.7598 1109.52 128.71ZM1063.71 128.71C1063.71 107.52 1051.97 89.7698 1029.35 89.7698C1006.73 89.7698 994.991 107.52 994.991 128.71C994.991 149.9 1006.73 167.65 1029.35 167.65C1051.97 167.65 1063.71 149.9 1063.71 128.71Z" fill="#191919"/>
<path d="M102.231 256.75C108.554 256.75 113.681 251.623 113.681 245.3C113.681 238.976 108.554 233.85 102.231 233.85C95.9071 233.85 90.7808 238.976 90.7808 245.3C90.7808 251.623 95.9071 256.75 102.231 256.75Z" fill="#87E64B"/>
<path d="M168.001 167.33L103.491 174.24C102.311 174.37 101.701 172.86 102.641 172.13L165.771 122.98C169.871 119.63 172.481 114.41 171.361 108.82C170.241 100.25 163.161 94.6599 154.221 95.7799L85.6308 105.82C84.4208 106 83.7708 104.45 84.7408 103.71L152.731 51.7999C166.151 41.3699 167.261 20.8698 154.971 8.94985C143.791 -2.23015 125.901 -1.86014 114.721 9.31986L5.16079 120.74C1.06079 125.21 -0.799204 131.17 0.320796 137.51C2.1808 147.57 12.2408 154.28 22.3108 152.42L81.3708 140.37C82.6508 140.11 83.3508 141.82 82.2408 142.52L16.7108 184.46C8.5108 189.68 4.7908 198.99 7.3908 208.31C10.0008 220.61 22.3008 227.69 34.2208 224.71L132.171 200.58C133.271 200.31 134.081 201.59 133.371 202.47L118.071 221.35C113.971 226.57 120.681 233.65 126.271 229.55L176.581 188.19C185.521 180.74 179.561 166.2 168.011 167.32L168.001 167.33Z" fill="#87E64B"/>
<path d="M1155.36 200.04V61.9902C1155.36 60.9002 1156.24 60.0202 1157.33 60.0202H1171.71C1172.8 60.0202 1173.68 60.9002 1173.68 61.9902V80.6302C1182.55 65.1702 1194.29 57.7302 1210.32 57.7302C1230.93 57.7302 1243.24 67.1802 1251.26 86.3602C1260.42 67.1802 1273.02 57.7302 1292.77 57.7302C1317.1 57.7302 1338.57 70.9002 1338.57 114.7V200.04C1338.57 201.13 1337.69 202.01 1336.6 202.01H1322.22C1321.13 202.01 1320.25 201.13 1320.25 200.04V111.55C1320.25 85.5002 1307.94 74.9102 1288.76 74.9102C1269.58 74.9102 1256.13 88.9402 1256.13 114.13V200.05C1256.13 201.14 1255.25 202.02 1254.16 202.02H1239.78C1238.69 202.02 1237.81 201.14 1237.81 200.05V111.56C1237.81 85.5102 1225.5 74.9202 1206.32 74.9202C1187.14 74.9202 1173.68 88.9502 1173.68 111.85V200.06C1173.68 201.15 1172.8 202.03 1171.71 202.03H1157.33C1156.24 202.03 1155.36 201.15 1155.36 200.06V200.04Z" fill="#191919"/>
<path d="M1451.94 200.04V172.24C1442.78 191.99 1424.74 204.3 1401.55 204.3C1375.21 204.3 1355.75 187.7 1355.75 162.5C1355.75 132.44 1377.79 117.84 1406.71 117.84H1437.34C1448.22 117.84 1451.37 111.83 1450.22 102.38C1448.79 90.0702 1439.34 73.7502 1414.44 73.7502C1389.54 73.7502 1376.89 88.5902 1374.87 102.63C1374.71 103.74 1373.65 104.48 1372.56 104.26L1358.81 101.6C1357.75 101.39 1357.03 100.37 1357.24 99.3102C1362.84 70.8702 1387.26 57.7202 1414.15 57.7202C1441.04 57.7202 1470.26 69.1702 1470.26 120.99V200.04C1470.26 201.13 1469.38 202.01 1468.29 202.01H1453.91C1452.82 202.01 1451.94 201.13 1451.94 200.04ZM1407.85 133.3C1383.8 133.3 1374.07 145.9 1374.07 161.07C1374.07 175.1 1383.23 188.27 1401.84 188.27C1430.18 188.27 1450.79 167.37 1451.94 133.31H1407.85V133.3Z" fill="#191919"/>
<path d="M1556.43 75.9502C1556.43 77.1602 1555.35 78.0902 1554.16 77.8902C1528.2 73.4802 1510.63 93.6302 1510.63 117.84V200.03C1510.63 201.12 1509.75 202 1508.66 202H1494.28C1493.19 202 1492.31 201.12 1492.31 200.03V61.9802C1492.31 60.8902 1493.19 60.0102 1494.28 60.0102H1508.66C1509.75 60.0102 1510.63 60.8902 1510.63 61.9802V86.9202C1517.21 68.3102 1532.39 57.7202 1551.28 57.7202C1552.39 57.7202 1553.61 57.8402 1554.73 58.0002C1555.71 58.1402 1556.44 58.9702 1556.44 59.9502V75.9402L1556.43 75.9502Z" fill="#191919"/>
<path d="M1687.46 202.01H1668.47C1667.86 202.01 1667.29 201.73 1666.92 201.25L1609.68 127.86L1590.79 144.75V200.03C1590.79 201.12 1589.91 202 1588.82 202H1574.44C1573.35 202 1572.47 201.12 1572.47 200.03V20.7503C1572.47 19.6603 1573.35 18.7803 1574.44 18.7803H1588.82C1589.91 18.7803 1590.79 19.6603 1590.79 20.7503V122.7L1660.66 60.5003C1661.02 60.1803 1661.49 60.0003 1661.97 60.0003H1681.78C1683.59 60.0003 1684.44 62.2503 1683.08 63.4503L1623.14 116.4L1689 198.8C1690.03 200.09 1689.11 202 1687.46 202V202.01Z" fill="#191919"/>
<path d="M1750.53 57.7302C1782.02 57.7302 1814.94 78.0602 1814.94 126.15C1814.94 129.06 1814.77 131.61 1814.55 133.82C1814.45 134.83 1813.6 135.6 1812.59 135.6H1700.14C1702.72 166.8 1722.76 187.13 1751.38 187.13C1774.58 187.13 1788.46 173.27 1794.29 158.92C1794.65 158.02 1795.59 157.5 1796.54 157.71L1809.98 160.62C1811.13 160.87 1811.8 162.06 1811.43 163.18C1805.21 182.21 1785.88 204.3 1751.38 204.3C1706.44 204.3 1682.1 170.23 1682.1 131.01C1682.1 87.5002 1710.16 57.7202 1750.52 57.7202L1750.53 57.7302ZM1796.62 119.56C1794.62 90.3602 1776.01 73.7602 1751.1 73.7602C1723.33 73.7602 1706.16 88.9302 1700.72 119.56H1796.62Z" fill="#191919"/>
<path d="M1815.8 74.0803V61.9903C1815.8 60.9003 1816.68 60.0203 1817.77 60.0203H1830.69C1838.28 60.0203 1844.43 53.8703 1844.43 46.2803V20.7703C1844.43 19.6803 1845.31 18.8003 1846.4 18.8003H1859.64C1860.73 18.8003 1861.61 19.6803 1861.61 20.7703V60.0203H1891.7C1892.79 60.0203 1893.67 60.9003 1893.67 61.9903V74.0803C1893.67 75.1703 1892.79 76.0503 1891.7 76.0503H1861.61V159.07C1861.61 186.99 1878.48 188.48 1891.21 185.24C1892.46 184.92 1893.68 185.85 1893.68 187.14V199.96C1893.68 200.86 1893.07 201.64 1892.2 201.87C1888.98 202.72 1885 203.15 1880.8 203.15C1853.6 203.15 1843.3 188.26 1843.3 157.06V76.0403H1817.79C1816.7 76.0403 1815.82 75.1603 1815.82 74.0703L1815.8 74.0803Z" fill="#191919"/>
</svg>

<svg fill="none" height="257" viewBox="0 0 1894 257" width="1894" xmlns="http://www.w3.org/2000/svg"><g fill="#191919"><path d="m293.781 50.8298c38.37 0 75.87 22.62 75.87 73.0102 0 4-.22 10.2-.66 14.56-.1 1-.95 1.76-1.96 1.76h-107.62c3.15 18.04 15.75 29.78 35.5 29.78 13.1 0 21.46-7.24 26.01-15.9.57-1.09 1.81-1.66 3.01-1.4l40.24 8.77c1.23.27 1.88 1.59 1.38 2.74-9.41 21.31-30.81 42.43-70.92 42.43-52.68 0-80.74-34.36-80.74-77.88 0-43.5202 29.2-77.8802 79.88-77.8802zm30.92 61.8502c-2-17.1802-13.46-26.3402-30.06-26.3402-21.76 0-30.92 11.17-34.36 26.3402z"/><path d="m383.4 200.04v-142.6502c0-1.09.88-1.97 1.97-1.97h41.87c1.09 0 1.97.88 1.97 1.97v16.9301c10.02-15.75 24.91-23.4801 44.09-23.4801 28.06 0 52.11 19.18 52.11 62.1302v87.07c0 1.09-.88 1.97-1.97 1.97h-41.87c-1.09 0-1.97-.88-1.97-1.97v-80.49c0-19.18-10.02-29.7801-24.62-29.7801-15.75 0-25.77 10.3101-25.77 33.7901v76.48c0 1.09-.88 1.97-1.97 1.97h-41.87c-1.09 0-1.97-.88-1.97-1.97z"/><path d="m528.22 55.4098h44.41c.87 0 1.63.57 1.89 1.4l33.36 110.5502 33.36-110.5502c.25-.83 1.02-1.4 1.89-1.4h44.41c1.36 0 2.32 1.35 1.85 2.64l-51.08 142.1302c-.39 1.09-1.43 1.83-2.6 1.83h-55.67c-1.16 0-2.2-.73-2.6-1.83l-51.08-142.1302c-.46-1.28.49-2.64 1.85-2.64z"/><path d="m786.541 200.04v-22.37c-7.16 14.89-23.19 28.92-48.1 28.92-28.92 0-50.39-18.32-50.39-44.09 0-27.2 18.04-47.53 57.55-47.53h22.91c12.6 0 16.03-9.16 14.89-15.1701-1.72-10.31-10.88-15.75-23.76-15.75-16.27 0-26.12 8.99-27.36 21.3701-.11 1.13-1.15 1.94-2.27 1.75l-38.84-6.47c-1.08-.18-1.82-1.2102-1.62-2.2802 6.33-33.79 38.37-47.58 71.25-47.58s69.29 8.02 69.29 68.7202v80.49c0 1.09-.88 1.97-1.97 1.97h-39.58c-1.09 0-1.97-.88-1.97-1.97zm-34.64-26.66c18.32 0 30.92-13.74 32.35-30.92h-27.77c-16.89 0-22.91 6.87-22.62 16.32.29 10.02 8.3 14.6 18.04 14.6z"/><path d="m836.94 90.0898v-32.71c0-1.09.88-1.97 1.97-1.97h16.35c7.59 0 13.74-6.15 13.74-13.74v-25.52c0-1.09.88-1.97 1.97-1.97h37.29c1.09 0 1.97.88 1.97 1.97v39.26h30.101c1.09 0 1.969.88 1.969 1.97v32.71c0 1.09-.879 1.97-1.969 1.97h-30.101v52.9702c0 17.26 14.67 24.29 29.99 18.85 1.02-.36 2.08.41 2.08 1.48v34.51c0 1.27-.859 2.39-2.089 2.68-3.96.94-9.451 1.75-15.941 1.75-35.5 0-59.84-12.03-59.84-63.56v-48.6702h-25.52c-1.09 0-1.97-.88-1.97-1.97z"/><path d="m1109.52 128.71c0 42.95-30.35 77.88-80.17 77.88-49.819 0-80.169-34.93-80.169-77.88 0-42.9502 30.35-77.8802 80.169-77.8802 49.82 0 80.17 34.93 80.17 77.8802zm-45.81 0c0-21.19-11.74-38.9402-34.36-38.9402s-34.359 17.7502-34.359 38.9402 11.739 38.94 34.359 38.94 34.36-17.75 34.36-38.94z"/></g><path d="m102.231 256.75c6.323 0 11.45-5.127 11.45-11.45 0-6.324-5.127-11.45-11.45-11.45-6.3239 0-11.4502 5.126-11.4502 11.45 0 6.323 5.1263 11.45 11.4502 11.45z" fill="#87e64b"/><path d="m168.001 167.33-64.51 6.91c-1.18.13-1.79-1.38-.85-2.11l63.13-49.15c4.1-3.35 6.71-8.57 5.59-14.16-1.12-8.57-8.2-14.1601-17.14-13.0401l-68.5902 10.0401c-1.21.18-1.86-1.37-.89-2.11l67.9902-51.9101c13.42-10.43 14.53-30.9301 2.24-42.85005-11.18-11.18-29.07-10.80999-40.25.37001l-109.56021 111.42014c-4.1 4.47-5.959994 10.43-4.839994 16.77 1.860004 10.06 11.920004 16.77 21.990004 14.91l59.06-12.05c1.28-.26 1.98 1.45.87 2.15l-65.53 41.94c-8.2 5.22-11.92 14.53-9.32 23.85 2.61 12.3 14.91 19.38 26.83 16.4l97.9502-24.13c1.1-.27 1.91 1.01 1.2 1.89l-15.3 18.88c-4.1 5.22 2.61 12.3 8.2 8.2l50.31-41.36c8.94-7.45 2.98-21.99-8.57-20.87z" fill="#87e64b"/><path d="m1155.36 200.04v-138.0498c0-1.09.88-1.97 1.97-1.97h14.38c1.09 0 1.97.88 1.97 1.97v18.64c8.87-15.46 20.61-22.9 36.64-22.9 20.61 0 32.92 9.45 40.94 28.63 9.16-19.18 21.76-28.63 41.51-28.63 24.33 0 45.8 13.17 45.8 56.9698v85.34c0 1.09-.88 1.97-1.97 1.97h-14.38c-1.09 0-1.97-.88-1.97-1.97v-88.49c0-26.0498-12.31-36.6398-31.49-36.6398s-32.63 14.03-32.63 39.2198v85.92c0 1.09-.88 1.97-1.97 1.97h-14.38c-1.09 0-1.97-.88-1.97-1.97v-88.49c0-26.0498-12.31-36.6398-31.49-36.6398s-32.64 14.03-32.64 36.9298v88.21c0 1.09-.88 1.97-1.97 1.97h-14.38c-1.09 0-1.97-.88-1.97-1.97z" fill="#191919"/><path d="m1451.94 200.04v-27.8c-9.16 19.75-27.2 32.06-50.39 32.06-26.34 0-45.8-16.6-45.8-41.8 0-30.06 22.04-44.66 50.96-44.66h30.63c10.88 0 14.03-6.01 12.88-15.46-1.43-12.3098-10.88-28.6298-35.78-28.6298s-37.55 14.84-39.57 28.8798c-.16 1.11-1.22 1.85-2.31 1.63l-13.75-2.66c-1.06-.21-1.78-1.23-1.57-2.2898 5.6-28.44 30.02-41.59 56.91-41.59s56.11 11.45 56.11 63.2698v79.05c0 1.09-.88 1.97-1.97 1.97h-14.38c-1.09 0-1.97-.88-1.97-1.97zm-44.09-66.74c-24.05 0-33.78 12.6-33.78 27.77 0 14.03 9.16 27.2 27.77 27.2 28.34 0 48.95-20.9 50.1-54.96h-44.09z" fill="#191919"/><path d="m1556.43 75.9502c0 1.21-1.08 2.14-2.27 1.94-25.96-4.41-43.53 15.74-43.53 39.9498v82.19c0 1.09-.88 1.97-1.97 1.97h-14.38c-1.09 0-1.97-.88-1.97-1.97v-138.0498c0-1.09.88-1.97 1.97-1.97h14.38c1.09 0 1.97.88 1.97 1.97v24.94c6.58-18.61 21.76-29.2 40.65-29.2 1.11 0 2.33.12 3.45.28.98.14 1.71.97 1.71 1.95v15.99z" fill="#191919"/><path d="m1687.46 202.01h-18.99c-.61 0-1.18-.28-1.55-.76l-57.24-73.39-18.89 16.89v55.28c0 1.09-.88 1.97-1.97 1.97h-14.38c-1.09 0-1.97-.88-1.97-1.97v-179.2797c0-1.09.88-1.97 1.97-1.97h14.38c1.09 0 1.97.88 1.97 1.97v101.9497l69.87-62.1997c.36-.32.83-.5 1.31-.5h19.81c1.81 0 2.66 2.25 1.3 3.45l-59.94 52.9497 65.86 82.4c1.03 1.29.11 3.2-1.54 3.2z" fill="#191919"/><path d="m1750.53 57.7302c31.49 0 64.41 20.33 64.41 68.4198 0 2.91-.17 5.46-.39 7.67-.1 1.01-.95 1.78-1.96 1.78h-112.45c2.58 31.2 22.62 51.53 51.24 51.53 23.2 0 37.08-13.86 42.91-28.21.36-.9 1.3-1.42 2.25-1.21l13.44 2.91c1.15.25 1.82 1.44 1.45 2.56-6.22 19.03-25.55 41.12-60.05 41.12-44.94 0-69.28-34.07-69.28-73.29 0-43.5098 28.06-73.2898 68.42-73.2898zm46.09 61.8298c-2-29.1998-20.61-45.7998-45.52-45.7998-27.77 0-44.94 15.17-50.38 45.7998z" fill="#191919"/><path d="m1815.8 74.0803v-12.09c0-1.09.88-1.97 1.97-1.97h12.92c7.59 0 13.74-6.15 13.74-13.74v-25.51c0-1.09.88-1.97 1.97-1.97h13.24c1.09 0 1.97.88 1.97 1.97v39.25h30.09c1.09 0 1.97.88 1.97 1.97v12.09c0 1.09-.88 1.97-1.97 1.97h-30.09v83.0197c0 27.92 16.87 29.41 29.6 26.17 1.25-.32 2.47.61 2.47 1.9v12.82c0 .9-.61 1.68-1.48 1.91-3.22.85-7.2 1.28-11.4 1.28-27.2 0-37.5-14.89-37.5-46.09v-81.0197h-25.51c-1.09 0-1.97-.88-1.97-1.97z" fill="#191919"/></svg>
